www/img/mcc-icons/camera.svg

<?xml version="1.0" encoding="UTF-8" standalone="no"?>
<svg width="46px" height="35px" viewBox="0 0 46 35" version="1.1" xmlns="http://www.w3.org/2000/svg" xmlns:xlink="http://www.w3.org/1999/xlink">
    <!-- Generator: Sketch 3.7.2 (28276) - http://www.bohemiancoding.com/sketch -->
    <title>camera</title>
    <desc>Created with Sketch.</desc>
    <defs></defs>
    <g id="Page-1" stroke="none" stroke-width="1" fill="none" fill-rule="evenodd">
        <g id="-Transaction-icons" transform="translate(-138.000000, -667.000000)" stroke-width="0.8" stroke="#FFFFFF" fill="#9B9BAB">
            <g id="camera" transform="translate(139.000000, 668.000000)">
                <path d="M40.8632812,4.70507812 L34.5683594,4.70507812 C31.4316406,4.70507812 29.8632812,0 26.7050781,0 L17.2949219,0 C14.1367188,0 12.5683594,4.70507812 9.43164062,4.70507812 L3.13671875,4.70507812 C1.39648438,4.70507812 0,6.12304688 0,7.86328125 L0,29.8632812 C0,31.5820312 1.39648438,33 3.13671875,33 L40.8632812,33 C42.5820312,33 44,31.5820312 44,29.8632812 L44,7.86328125 C44,6.12304688 42.5820312,4.70507812 40.8632812,4.70507812 L40.8632812,4.70507812 Z M42.4316406,29.8632812 C42.4316406,30.7226562 41.7226562,31.4316406 40.8632812,31.4316406 L3.13671875,31.4316406 C2.27734375,31.4316406 1.56835938,30.7226562 1.56835938,29.8632812 L1.56835938,7.86328125 C1.56835938,6.98242188 2.27734375,6.2734375 3.13671875,6.2734375 L9.43164062,6.2734375 C13.3632812,6.2734375 14.9316406,1.56835938 17.2949219,1.56835938 L26.8554688,1.56835938 C29.2617188,1.56835938 30.8945312,6.2734375 34.9335938,6.2734375 L40.8632812,6.2734375 C41.7226562,6.2734375 42.4316406,6.98242188 42.4316406,7.86328125 L42.4316406,29.8632812 Z M22,7.86328125 C16.8007812,7.86328125 12.5683594,12.0742188 12.5683594,17.2734375 C12.5683594,22.4941406 16.8007812,26.7050781 22,26.7050781 C27.1992188,26.7050781 31.4316406,22.4941406 31.4316406,17.2734375 C31.4316406,12.0742188 27.1992188,7.86328125 22,7.86328125 L22,7.86328125 Z M34.5683594,8.63671875 C33.7089844,8.63671875 33,9.34570312 33,10.2050781 C33,11.0859375 33.7089844,11.7734375 34.5683594,11.7734375 C35.4492188,11.7734375 36.1367188,11.0859375 36.1367188,10.2050781 C36.1367188,9.34570312 35.4492188,8.63671875 34.5683594,8.63671875 L34.5683594,8.63671875 Z M22,25.1367188 C17.6601562,25.1367188 14.1367188,21.6132812 14.1367188,17.2734375 C14.1367188,12.9335938 17.6601562,9.43164062 22,9.43164062 C26.3398438,9.43164062 29.8632812,12.9335938 29.8632812,17.2734375 C29.8632812,21.6132812 26.3398438,25.1367188 22,25.1367188 L22,25.1367188 Z M22,11 C18.5195312,11 15.7050781,13.8144531 15.7050781,17.2734375 C15.7050781,20.7539062 18.5195312,23.5683594 22,23.5683594 C25.4804688,23.5683594 28.2949219,20.7539062 28.2949219,17.2734375 C28.2949219,13.8144531 25.4804688,11 22,11 L22,11 Z M22,22 C19.4003906,22 17.2949219,19.8945312 17.2949219,17.2734375 C17.2949219,14.6738281 19.4003906,12.5683594 22,12.5683594 C24.5996094,12.5683594 26.7050781,14.6738281 26.7050781,17.2734375 C26.7050781,19.8945312 24.5996094,22 22,22 L22,22 Z"></path>
            </g>
        </g>
    </g>
</svg>

<svg width="46" height="35" viewBox="0 0 46 35" xmlns="http://www.w3.org/2000/svg"><g class="nc-icon-wrapper" fill="#444444"><title>camera</title><g stroke="#444444" stroke-width=".9" fill="none" fill-rule="evenodd"><path d="M40.863 4.705h-6.295C31.432 4.705 29.863 0 26.705 0h-9.41c-3.158 0-4.727 4.705-7.863 4.705H3.137C1.397 4.705 0 6.123 0 7.863v22A3.14 3.14 0 0 0 3.137 33h37.726A3.154 3.154 0 0 0 44 29.863v-22c0-1.74-1.418-3.158-3.137-3.158z" transform="translate(1 1)"></path><path d="M22 7.863c-5.2 0-9.432 4.211-9.432 9.41 0 5.221 4.233 9.432 9.432 9.432 5.2 0 9.432-4.21 9.432-9.432 0-5.199-4.233-9.41-9.432-9.41z" transform="translate(1 1)"></path><path d="M34.568 8.637c-.859 0-1.568.709-1.568 1.568 0 .88.709 1.568 1.568 1.568a1.55 1.55 0 0 0 1.569-1.568c0-.86-.688-1.568-1.569-1.568z" transform="translate(1 1)"></path><path d="M22 11c-3.48 0-6.295 2.814-6.295 6.273A6.29 6.29 0 0 0 22 23.568a6.29 6.29 0 0 0 6.295-6.295C28.295 13.814 25.48 11 22 11z" transform="translate(1 1)"></path></g></g></svg>
